!!!OTL: Folk song Number 12
!!!CNT: Chinese
**kern
*k[f#]
*M2/4
=1
8e
(16g
16a)
8e
(16g
16a)
=2
(8.e
16d)
(8.e
16g)
=3
8b
8ee
8dd
(16b
16dd)
=4
(8.a
16g
4e)
=5
8b
8ee
8dd
16b
16dd
=6
(8a
16e
16g)
(8.a
16dd)
=7
(16b
16a)
(16g
16a)
(16e
16d)
(16B
16d)
=8
4e
4e
==
*-
!!!PPR: Yin yueh ch'u pan she
!!!OPR: Chung-kuo min ko Chung-kuo yin yueh yen chiu so pien [Chinese folk songs]
!!!OCL: Chung-kuo yin yueh yen chiu so
!!!PPP: Beijing, China
!!!PDT: 1959///
!!!SML: Edward Johnson Library, University of Toronto M1804.C4694C5
!!!PPG: p.8
!!!ENC: David Huron
!!!EMD: Paul von Hippel updated this file in the following ways (1998/9/29/):
!!!EMD:  (1) changed the representation of slurs from curly braces to parentheses 
!!!EMD:  (2) changed freeform comments into reference records and tandem interpretations
!!!EMD:  (3) corrected the author, title, author, and call number of the printed source 
!!!EEV: Version 2.0
